X: 216
T: Final Round Polka
M:2/4
L:1/8
C:Carl Hession
R:polka
K:G
G/A/|"G"BB "D7(Am)"cA| "G"GF "D"DG/A/ |"G" BB "D7(Am)"cA|"G(Bm)"d3 B/c/|
"G"de/d/ "C"cd/c/|"G"Bc/B/ "D"AB/A/|"G"GF "D"DD|D3:|
B/c/|"G"dd "C"ec |"G(Bm)"Bc dB/A/|"G"GG AG|"D"FG Ad/c/|
"G"Bc/B/ "D"AB/A/|"G"GA/G/ "D"FG/A/|"G(Bm)"Bc "D"AF|"G"G3:|
D|"G"G2 G-G/F/|GA Bc|dg/f/ "C"ec|"D7(Am)"AB c/B/A|
"G"ga/g/ "D"f2|"G"de/d/ "D7"cA|"G"de/d/ "D7"cA|"G"Bcd:|


